X:1
T:Ades Pater Supreme, 77.77
T:Ades Pater Supreme, 77.77
T:Melodiæ Prudentianæ, 1533
T:Public Domain Courtesy of the Cyber Hymnal™
C:Melodiæ Prudentianæ, 1533
Z:Public Domain
Z:Courtesy of the Cyber Hymnal™
%%score ( 1 2 ) ( 3 4 )
L:1/8
Q:1/4=115
M:none
K:C
V:1 treble 
V:2 treble 
V:3 bass 
V:4 bass 
V:1
 [B,E]2 | G2 z [GB]2 [Ec]2 x | B2 [CA]4 [Fd]2 | [Gc]2 [FA]2 [EG]2 [EA]2 | %4
 F4 !fermata![B,E]2 [B,G]2 | [B,G]2 [CG]2 [EA]2 [DG]2 | c2 [GB]4 [=FA]2 | %7
 [EG]2 [EG]2 [EA]2 [EG]2 x | F4 !fermata![B,E]2 |] %9
V:2
 x2 | E3 (A2 ^F) x2 | (ED) x6 | x8 | D2 C2 x4 | x8 | (E^F) x6 | x9 | D2 C2 x2 |] %9
V:3
 [E,G,]2 | [C,C]2 [A,,C]2 [G,,D]2 G,2 | [E,^G,]2 [F,A,]4 [D,A,]2 | [E,G,]2 [F,C]2 C2 [A,,C]2 | %4
 [D,A,]4 !fermata![E,^G,]2 [E,=G,]2 | [D,F,]2 [C,E,]2 [C,A,]2 [B,,B,]2 | [A,,C]2 [G,,D]4 [D,D]2 | %7
 [E,B,]2 C2 C3 z B, | [D,A,]4 !fermata![E,^G,]2 |] %9
V:4
 x2 | x6 (C,D,) | x8 | x4 (C,B,,) x2 | x8 | x8 | x8 | x2 (C,B,,) A,,2 C,2 x | x6 |] %9

